docs/errorcode.svg

<?xml version="1.0" encoding="UTF-8" standalone="no"?>
<svg
   xmlns:dc="http://purl.org/dc/elements/1.1/"
   xmlns:cc="http://creativecommons.org/ns#"
   xmlns:rdf="http://www.w3.org/1999/02/22-rdf-syntax-ns#"
   xmlns:svg="http://www.w3.org/2000/svg"
   xmlns="http://www.w3.org/2000/svg"
   height="16"
   id="svg7384"
   version="1.1"
   width="16.036167">
  <metadata
     id="metadata90">
    <rdf:RDF>
      <cc:Work
         rdf:about="">
        <dc:format>image/svg+xml</dc:format>
        <dc:type
           rdf:resource="http://purl.org/dc/dcmitype/StillImage" />
        <dc:title>elementary Symbolic Icon Theme</dc:title>
      </cc:Work>
    </rdf:RDF>
  </metadata>
  <title
     id="title9167">elementary Symbolic Icon Theme</title>
  <defs
     id="defs7386" />
  <g
     id="layer9"
     label="status"
     style="display:inline"
     transform="translate(-433.00039,12)" />
  <g
     id="layer10"
     style="display:inline"
     transform="translate(-433.00039,12)" />
  <g
     id="layer13"
     style="display:inline"
     transform="translate(-433.00039,12)" />
  <g
     id="layer14"
     transform="translate(-433.00039,12)" />
  <g
     id="layer15"
     style="display:inline"
     transform="translate(-433.00039,12)" />
  <g
     id="g71291"
     style="display:inline"
     transform="translate(-433.00039,12)" />
  <g
     id="layer9-2-2"
     style="display:inline"
     transform="translate(-701.76365,603.60207)" />
  <g
     id="layer10-0-6"
     style="display:inline"
     transform="translate(-701.76365,603.60207)" />
  <g
     id="layer11-5"
     transform="translate(-701.76365,603.60207)" />
  <g
     id="layer14-7-9"
     transform="translate(-701.76365,603.60207)" />
  <g
     id="layer15-5-2"
     style="display:inline"
     transform="translate(-701.76365,603.60207)" />
  <g
     id="g71291-8-4"
     style="display:inline"
     transform="translate(-701.76365,603.60207)" />
  <g
     id="g4953-5"
     style="display:inline"
     transform="translate(-701.76365,603.60207)" />
  <g
     id="layer12-4"
     style="display:inline"
     transform="translate(-701.76365,603.60207)" />
  <g
     id="layer10-2"
     style="display:inline"
     transform="translate(-288.02844,406.39676)" />
  <g
     id="layer11"
     transform="translate(-288.02844,406.39676)" />
  <g
     id="layer13-0"
     style="display:inline"
     transform="translate(-288.02844,406.39676)" />
  <g
     id="layer14-3"
     transform="translate(-288.02844,406.39676)" />
  <g
     id="layer15-1"
     style="display:inline"
     transform="translate(-288.02844,406.39676)" />
  <g
     id="g71291-5"
     style="display:inline"
     transform="translate(-288.02844,406.39676)" />
  <g
     id="g4953"
     style="display:inline"
     transform="translate(-288.02844,406.39676)" />
  <g
     id="layer12"
     style="display:inline"
     transform="translate(-288.02844,406.39676)" />
  <path
     style="color:#fbc02d;clip-rule:nonzero;display:inline;overflow:visible;visibility:visible;opacity:1;isolation:auto;mix-blend-mode:normal;color-interpolation:sRGB;color-interpolation-filters:linearRGB;solid-color:#000000;solid-opacity:1;fill:#fbc02d;fill-opacity:1;fill-rule:nonzero;stroke:none;stroke-width:1;stroke-linecap:butt;stroke-linejoin:miter;stroke-miterlimit:4;stroke-dasharray:none;stroke-dashoffset:0;stroke-opacity:1;marker:none;color-rendering:auto;image-rendering:auto;shape-rendering:auto;text-rendering:auto;enable-background:accumulate"
     d="M 2.5736392,2 C 1.7118614,2 1.0180836,2.7008571 1.0180836,3.5714286 l 0,7.8571434 C 1.0180836,12.299143 1.7118614,13 2.5736392,13 l 10.8888888,0 c 0.861779,0 1.555556,-0.700857 1.555556,-1.571428 l 0,-7.8571434 C 15.018084,2.7008571 14.324307,2 13.462528,2 Z"
     id="rect4162-1-2-3" />
  <path
     style="color:#bebebe;clip-rule:nonzero;display:inline;overflow:visible;visibility:visible;opacity:0.5;isolation:auto;mix-blend-mode:normal;color-interpolation:sRGB;color-interpolation-filters:linearRGB;solid-color:#000000;solid-opacity:1;fill:#403757;fill-opacity:1;fill-rule:nonzero;stroke:none;stroke-width:1;stroke-linecap:butt;stroke-linejoin:miter;stroke-miterlimit:4;stroke-dasharray:none;stroke-dashoffset:0;stroke-opacity:1;marker:none;color-rendering:auto;image-rendering:auto;shape-rendering:auto;text-rendering:auto;enable-background:accumulate"
     d="m 4,5 0,1 8,0 0,-1 -8,0 z m 0,2 0,1 8,0 0,-1 -8,0 z m 0,2 0,1 8,0 0,-1 -8,0 z"
     id="rect4194-8-1" />
  <path
     id="path3482-5-7-8"
     d="M 12.5 7 C 9.462444 7 7 9.4624441 7 12.5 C 7 12.668742 7.010516 12.835131 7.0253906 13 L 13.462891 13 C 14.32467 13 15.017578 12.298305 15.017578 11.427734 L 15.017578 7.6132812 C 14.262633 7.223445 13.408225 7 12.5 7 z "
     style="color:#bebebe;clip-rule:nonzero;display:inline;overflow:visible;visibility:visible;opacity:0.05;isolation:auto;mix-blend-mode:normal;color-interpolation:sRGB;color-interpolation-filters:linearRGB;solid-color:#000000;solid-opacity:1;fill:#800000;fill-opacity:1;fill-rule:nonzero;stroke:none;stroke-width:1;stroke-linecap:butt;stroke-linejoin:miter;stroke-miterlimit:4;stroke-dasharray:none;stroke-dashoffset:0;stroke-opacity:1;marker:none;color-rendering:auto;image-rendering:auto;shape-rendering:auto;text-rendering:auto;enable-background:accumulate" />
  <path
     id="path3482-5-7"
     d="M 12.5 8 C 10.014727 8 8 10.014727 8 12.5 C 8 12.671403 8.0321217 12.83358 8.0507812 13 L 13.462891 13 C 14.32467 13 15.017578 12.298305 15.017578 11.427734 L 15.017578 8.7695312 C 14.298925 8.2833774 13.432966 8 12.5 8 z "
     style="color:#bebebe;clip-rule:nonzero;display:inline;overflow:visible;visibility:visible;opacity:0.1;isolation:auto;mix-blend-mode:normal;color-interpolation:sRGB;color-interpolation-filters:linearRGB;solid-color:#000000;solid-opacity:1;fill:#800000;fill-opacity:1;fill-rule:nonzero;stroke:none;stroke-width:1;stroke-linecap:butt;stroke-linejoin:miter;stroke-miterlimit:4;stroke-dasharray:none;stroke-dashoffset:0;stroke-opacity:1;marker:none;color-rendering:auto;image-rendering:auto;shape-rendering:auto;text-rendering:auto;enable-background:accumulate" />
  <path
     style="color:#bebebe;display:inline;overflow:visible;visibility:visible;fill:#ef2929;fill-opacity:1;fill-rule:nonzero;stroke:none;stroke-width:1.90939796;marker:none;enable-background:accumulate"
     id="path3482-5"
     d="m 12.50002,8.9965178 c -1.93299,0 -3.5,1.5670102 -3.5,3.5000002 0,1.93299 1.56701,3.5 3.5,3.5 1.93299,0 3.5,-1.56701 3.5,-3.5 0,-1.93299 -1.56701,-3.5000002 -3.5,-3.5000002 z"
     class="error" />
  <path
     style="color:#bebebe;display:inline;overflow:visible;visibility:visible;fill:#ffffff;fill-opacity:1;fill-rule:nonzero;stroke:none;stroke-width:1.90939796;marker:none;enable-background:accumulate"
     id="path3482-5-0"
     d="m 10.00002,11.965268 5,0 0,1.03125 -5,0 z"
     class="error" />
</svg>

<?xml version="1.0" encoding="UTF-8"?>
<svg id="svg7384" width="16.036" height="16" version="1.1" xmlns="http://www.w3.org/2000/svg" xmlns:cc="http://creativecommons.org/ns#" xmlns:dc="http://purl.org/dc/elements/1.1/" xmlns:rdf="http://www.w3.org/1999/02/22-rdf-syntax-ns#">
 <metadata id="metadata90">
  <rdf:RDF>
   <cc:Work rdf:about="">
    <dc:format>image/svg+xml</dc:format>
    <dc:type rdf:resource="http://purl.org/dc/dcmitype/StillImage"/>
    <dc:title>elementary Symbolic Icon Theme</dc:title>
   </cc:Work>
  </rdf:RDF>
 </metadata>
 <title id="title9167">elementary Symbolic Icon Theme</title>
 <path id="rect4162-1-2-3" d="m2.5736 2c-0.86178 0-1.5556 0.70086-1.5556 1.5714v7.8571c0 0.87057 0.69378 1.5714 1.5556 1.5714h10.889c0.86178 0 1.5556-0.70086 1.5556-1.5714v-7.8571c0-0.87057-0.69378-1.5714-1.5556-1.5714z" style="color-rendering:auto;color:#fbc02d;fill:#fbc02d;image-rendering:auto;isolation:auto;mix-blend-mode:normal;shape-rendering:auto;solid-color:#000000"/>
 <path id="rect4194-8-1" d="m4 5v1h8v-1h-8zm0 2v1h8v-1h-8zm0 2v1h8v-1h-8z" style="color-rendering:auto;color:#bebebe;fill:#403757;image-rendering:auto;isolation:auto;mix-blend-mode:normal;opacity:.5;shape-rendering:auto;solid-color:#000000"/>
 <path id="path3482-5-7-8" d="m12.5 7c-3.0376 0-5.5 2.4624-5.5 5.5 0 0.16874 0.010516 0.33513 0.025391 0.5h6.4375c0.86178 0 1.5547-0.7017 1.5547-1.5723v-3.8145c-0.75494-0.38984-1.6094-0.61328-2.5176-0.61328z" style="color-rendering:auto;color:#bebebe;fill:#800000;image-rendering:auto;isolation:auto;mix-blend-mode:normal;opacity:.05;shape-rendering:auto;solid-color:#000000"/>
 <path id="path3482-5-7" d="m12.5 8c-2.4853 0-4.5 2.0147-4.5 4.5 0 0.1714 0.032122 0.33358 0.050781 0.5h5.4121c0.86178 0 1.5547-0.7017 1.5547-1.5723v-2.6582c-0.71865-0.48615-1.5846-0.76953-2.5176-0.76953z" style="color-rendering:auto;color:#bebebe;fill:#800000;image-rendering:auto;isolation:auto;mix-blend-mode:normal;opacity:.1;shape-rendering:auto;solid-color:#000000"/>
 <path id="path3482-5" class="error" d="m12.5 8.9965c-1.933 0-3.5 1.567-3.5 3.5s1.567 3.5 3.5 3.5 3.5-1.567 3.5-3.5-1.567-3.5-3.5-3.5z" style="color:#bebebe;fill:#ef2929"/>
 <path id="path3482-5-0" class="error" d="m10 11.965h5v1.0312h-5z" style="color:#bebebe;fill:#fff"/>
</svg>
